lib/brands/icons/policytech.svg

<svg xmlns="http://www.w3.org/2000/svg" fill="none" aria-hidden="true" viewBox="0 0 48 48"><g id="policytech-Icon"><g id="Group"><path id="border (Stroke)" fill="#522D6F" fill-rule="evenodd" d="M5.99902 6H41.999V42H5.99902V6ZM9.99902 10V38H37.999V10H9.99902Z" clip-rule="evenodd"/><path id="PT" fill="#5F5B5C" d="M19.7192 29.0001V25.0001H20.7892C22.6992 25.0001 23.9992 24.0701 23.9992 22.0001C23.9992 20.5001 23.2992 19.0001 21.2592 19.0001H17.6992V29.0001H19.7192ZM20.6092 23.5301H19.7192V20.5301H20.5592C21.5592 20.5301 21.9592 21.0901 21.9592 22.0701C21.9592 23.0501 21.4092 23.5301 20.6092 23.5301V23.5301ZM28.6092 29.0001V20.6601H30.7992V19.0001H24.4292V20.6601H26.6192V29.0001H28.6092Z"/></g></g></svg>

<svg xmlns="http://www.w3.org/2000/svg" fill="none" aria-hidden="true" viewBox="0 0 48 48"><path fill="#522D6F" fill-rule="evenodd" d="M5.999 6h36v36h-36V6Zm4 4v28h28V10h-28Z" clip-rule="evenodd"/><path fill="#5F5B5C" d="M19.72 29v-4h1.07c1.91 0 3.21-.93 3.21-3 0-1.5-.7-3-2.74-3H17.7v10h2.02Zm.89-5.47h-.89v-3h.84c1 0 1.4.56 1.4 1.54s-.55 1.46-1.35 1.46Zm8 5.47v-8.34h2.19V19h-6.37v1.66h2.19V29h1.99Z"/></svg>
